t1
m6
t2
m6
t1
m6
t2
m6
t2
m6
t1m6
f1500
G38.2 Z-110
f1500
G38.2 Z-110
f1500
G38.2 Z-110
G0 Z0
G0 Z-1
f1500
G38.2 Z-110
G0 Z0
f1500
G1 Z0
G38.2 Z-110
G1 Z0
G38.3 Z-110
G1 Z0
G38.3 Z-110
O<sys.init_machine> call
g0 y40
f2000
g1 y500
