(Created with emc2b post processor 2016/02/24 00:59)
G21
(G-code generated with BlenderCAM and NC library)
G17 G90
(Tool change - D = 3.0 mm  type END flutes 2)
T1 M06 G43
G00 X0 Y0 Z0 S12000 M03
X1.999 Y1.599 Z9.999
G01 Z-9.999 F500
Y15.199 F1000
G00 Z9.999
X2.999 Y1.599
G01 Z-9.999 F500
Y4.999 F1000
Y5.199 Z-8.552
Y5.399 Z-8.095
Y5.599 Z-7.787
Y5.799 Z-7.55
Y5.999 Z-7.353
Y6.199 Z-7.193
Y6.399 Z-7.055
Y6.599 Z-6.938
Y6.799 Z-6.84
Y6.999 Z-6.755
Y7.199 Z-6.684
Y7.399 Z-6.629
Y7.599 Z-6.584
Y7.799 Z-6.549
Y7.999 Z-6.527
Y8.199 Z-6.515
Y8.399 Z-6.512
Y8.599 Z-6.52
Y8.799 Z-6.54
Y8.999 Z-6.569
Y9.199 Z-6.608
Y9.399 Z-6.661
Y9.599 Z-6.727
Y9.799 Z-6.803
Y9.999 Z-6.895
Y10.199 Z-7.006
Y10.399 Z-7.134 F500
Y10.599 Z-7.286
Y10.799 Z-7.467
Y10.999 Z-7.682
Y11.199 Z-7.962
Y11.399 Z-8.335
Y11.599 Z-9.113
Y11.799 Z-9.999
Y15.999 F1000
G00 Z9.999
X3.999 Y1.599
G01 Z-9.999 F500
Y3.599 F1000
Y3.799 Z-8.854
Y3.999 Z-8.086
Y4.199 Z-7.647
Y4.399 Z-7.321
Y4.599 Z-7.054
Y4.799 Z-6.83
Y4.999 Z-6.635
Y5.199 Z-6.464
Y5.399 Z-6.315
Y5.599 Z-6.181
Y5.799 Z-6.065
Y5.999 Z-5.961
Y6.199 Z-5.868
Y6.399 Z-5.786
Y6.599 Z-5.715
Y6.799 Z-5.653
Y6.999 Z-5.6
Y7.199 Z-5.554
Y7.399 Z-5.517
Y7.599 Z-5.487
Y7.799 Z-5.465
Y7.999 Z-5.45
Y8.199 Z-5.442
Y8.399 Z-5.44
Y8.599 Z-5.445
Y8.799 Z-5.457
Y8.999 Z-5.477
Y9.199 Z-5.504
Y9.399 Z-5.539
Y9.599 Z-5.58
Y9.799 Z-5.63
Y9.999 Z-5.688
Y10.199 Z-5.756
Y10.399 Z-5.834
Y10.599 Z-5.922
Y10.799 Z-6.02
Y10.999 Z-6.133
Y11.199 Z-6.259 F500
Y11.399 Z-6.401
Y11.599 Z-6.563
Y11.799 Z-6.746
Y11.999 Z-6.959
Y12.199 Z-7.206
Y12.399 Z-7.507
Y12.599 Z-7.888
Y12.799 Z-8.457
Y12.999 Z-9.999
Y16.599 F1000
G00 Z9.999
X4.999 Y1.599
G01 Z-9.999 F500
Y2.799 F1000
Y2.999 Z-8.645
Y3.199 Z-7.903
Y3.399 Z-7.444
Y3.599 Z-7.095
Y3.799 Z-6.807
Y3.999 Z-6.56
Y4.199 Z-6.347
Y4.399 Z-6.157
Y4.599 Z-5.99
Y4.799 Z-5.84
Y4.999 Z-5.705
Y5.199 Z-5.585
Y5.399 Z-5.475
Y5.599 Z-5.378
Y5.799 Z-5.291
Y5.999 Z-5.212
Y6.199 Z-5.142
Y6.399 Z-5.081
Y6.599 Z-5.027
Y6.799 Z-4.98
Y6.999 Z-4.939
Y7.199 Z-4.906
Y7.399 Z-4.877
Y7.599 Z-4.855
Y7.799 Z-4.838
Y7.999 Z-4.826
Y8.199 Z-4.82
Y8.399 Z-4.82
Y8.599 Z-4.824
Y8.799 Z-4.833
Y8.999 Z-4.848
Y9.199 Z-4.868
Y9.399 Z-4.893
Y9.599 Z-4.925
Y9.799 Z-4.963
Y9.999 Z-5.007
Y10.199 Z-5.058
Y10.399 Z-5.117
Y10.599 Z-5.183
Y10.799 Z-5.257
Y10.999 Z-5.341
Y11.199 Z-5.435
Y11.399 Z-5.539
Y11.599 Z-5.654
Y11.799 Z-5.784 F500
Y11.999 Z-5.927
Y12.199 Z-6.087
Y12.399 Z-6.267
Y12.599 Z-6.471
Y12.799 Z-6.702
Y12.999 Z-6.973
Y13.199 Z-7.292
Y13.399 Z-7.7
Y13.599 Z-8.277
Y13.799 Z-9.999
Y17.199 F1000
G00 Z9.999
X5.999 Y1.599
G01 Z-9.999 F500
Y2.199 F1000
Y2.399 Z-9.079
Y2.599 Z-7.983
Y2.799 Z-7.455
Y2.999 Z-7.066
Y3.199 Z-6.747
Y3.399 Z-6.474
Y3.599 Z-6.24
Y3.799 Z-6.032
Y3.999 Z-5.847
Y4.199 Z-5.682
Y4.399 Z-5.533
Y4.599 Z-5.399
Y4.799 Z-5.278
Y4.999 Z-5.17
Y5.199 Z-5.071
Y5.399 Z-4.983
Y5.599 Z-4.904
Y5.799 Z-4.834
Y5.999 Z-4.771
Y6.199 Z-4.716
Y6.399 Z-4.668
Y6.599 Z-4.627
Y6.799 Z-4.591
Y6.999 Z-4.561
Y7.199 Z-4.536
Y7.399 Z-4.516
Y7.599 Z-4.5
Y7.799 Z-4.489
Y7.999 Z-4.481
Y8.199 Z-4.476
Y8.399 Z-4.476
Y8.599 Z-4.478
Y8.799 Z-4.485
Y8.999 Z-4.495
Y9.199 Z-4.509
Y9.399 Z-4.527
Y9.599 Z-4.55
Y9.799 Z-4.578
Y9.999 Z-4.612
Y10.199 Z-4.651
Y10.399 Z-4.696
Y10.599 Z-4.748
Y10.799 Z-4.808
Y10.999 Z-4.874
Y11.199 Z-4.95
Y11.399 Z-5.035
Y11.599 Z-5.128
Y11.799 Z-5.233
Y11.999 Z-5.349 F500
Y12.199 Z-5.477
Y12.399 Z-5.62
Y12.599 Z-5.778
Y12.799 Z-5.954
Y12.999 Z-6.153
Y13.199 Z-6.374
Y13.399 Z-6.632
Y13.599 Z-6.93
Y13.799 Z-7.286
Y13.999 Z-7.745
Y14.199 Z-8.451
Y14.399 Z-9.999
Y17.399 F1000
G00 Z9.999
X6.999 Y1.599
G01 Z-9.999 F500
Y1.999 F1000
Y2.199 Z-8.136
Y2.399 Z-7.532
Y2.599 Z-7.099
Y2.799 Z-6.752
Y2.999 Z-6.459
Y3.199 Z-6.207
Y3.399 Z-5.985
Y3.599 Z-5.788
Y3.799 Z-5.611
Y3.999 Z-5.452
Y4.199 Z-5.309
Y4.399 Z-5.18
Y4.599 Z-5.063
Y4.799 Z-4.959
Y4.999 Z-4.865
Y5.199 Z-4.781
Y5.399 Z-4.707
Y5.599 Z-4.64
Y5.799 Z-4.583
Y5.999 Z-4.533
Y6.199 Z-4.491
Y6.399 Z-4.456
Y6.599 Z-4.427
Y6.799 Z-4.403
Y6.999 Z-4.385
Y7.199 Z-4.372
Y7.399 Z-4.363
Y7.599 Z-4.357
Y7.799 Z-4.354
Y7.999 Z-4.352
Y8.199 Z-4.351
Y8.399 Z-4.351
Y8.599 Z-4.351
Y8.799 Z-4.353
Y8.999 Z-4.355
Y9.199 Z-4.36
Y9.399 Z-4.368
Y9.599 Z-4.38
Y9.799 Z-4.396
Y9.999 Z-4.417
Y10.199 Z-4.443
Y10.399 Z-4.476
Y10.599 Z-4.516
Y10.799 Z-4.562
Y10.999 Z-4.616
Y11.199 Z-4.679
Y11.399 Z-4.75
Y11.599 Z-4.83
Y11.799 Z-4.919
Y11.999 Z-5.02
Y12.199 Z-5.131
Y12.399 Z-5.255 F500
Y12.599 Z-5.392
Y12.799 Z-5.544
Y12.999 Z-5.713
Y13.199 Z-5.902
Y13.399 Z-6.114
Y13.599 Z-6.352
Y13.799 Z-6.627
Y13.999 Z-6.951
Y14.199 Z-7.343
Y14.399 Z-7.859
Y14.599 Z-8.762
Y14.799 Z-9.999
Y17.799 F1000
G00 Z9.999
X7.999 Y1.599
G01 Z-9.999 F500
Y1.799 F1000
Y1.999 Z-8.219
Y2.199 Z-7.567
Y2.399 Z-7.114
Y2.599 Z-6.755
Y2.799 Z-6.453
Y2.999 Z-6.192
Y3.199 Z-5.963
Y3.399 Z-5.759
Y3.599 Z-5.577
Y3.799 Z-5.413
Y3.999 Z-5.265
Y4.199 Z-5.132
Y4.399 Z-5.013
Y4.599 Z-4.906
Y4.799 Z-4.809
Y4.999 Z-4.723
Y5.199 Z-4.647
Y5.399 Z-4.581
Y5.599 Z-4.524
Y5.799 Z-4.475
Y5.999 Z-4.435
Y6.199 Z-4.402
Y6.399 Z-4.378
Y6.599 Z-4.361
Y6.799 Z-4.352
Y6.999 Z-4.349
Y9.599
Y9.799 Z-4.35
Y9.999 Z-4.357
Y10.199 Z-4.371
Y10.399 Z-4.392
Y10.599 Z-4.421
Y10.799 Z-4.458
Y10.999 Z-4.503
Y11.199 Z-4.557
Y11.399 Z-4.62
Y11.599 Z-4.691
Y11.799 Z-4.773
Y11.999 Z-4.865
Y12.199 Z-4.968
Y12.399 Z-5.082
Y12.599 Z-5.21 F500
Y12.799 Z-5.351
Y12.999 Z-5.508
Y13.199 Z-5.683
Y13.399 Z-5.877
Y13.599 Z-6.096
Y13.799 Z-6.343
Y13.999 Z-6.627
Y14.199 Z-6.96
Y14.399 Z-7.369
Y14.599 Z-7.915
Y14.799 Z-9.02
Y14.999 Z-9.999
Y17.799 F1000
G00 Z9.999
X8.999 Y1.599
G01 Z-9.999 F500
Y1.799 F1000
Y1.999 Z-8.147
Y2.199 Z-7.521
Y2.399 Z-7.078
Y2.599 Z-6.723
Y2.799 Z-6.425
Y2.999 Z-6.166
Y3.199 Z-5.939
Y3.399 Z-5.736
Y3.599 Z-5.556
Y3.799 Z-5.393
Y3.999 Z-5.247
Y4.199 Z-5.115
Y4.399 Z-4.996
Y4.599 Z-4.889
Y4.799 Z-4.794
Y4.999 Z-4.71
Y5.199 Z-4.635
Y5.399 Z-4.569
Y5.599 Z-4.513
Y5.799 Z-4.465
Y5.999 Z-4.426
Y6.199 Z-4.395
Y6.399 Z-4.372
Y6.599 Z-4.357
Y6.799 Z-4.35
Y6.999 Z-4.349
Y9.799 Z-4.349
Y9.999 Z-4.354
Y10.199 Z-4.365
Y10.399 Z-4.385
Y10.599 Z-4.413
Y10.799 Z-4.448
Y10.999 Z-4.492
Y11.199 Z-4.545
Y11.399 Z-4.607
Y11.599 Z-4.678
Y11.799 Z-4.759
Y11.999 Z-4.85
Y12.199 Z-4.951
Y12.399 Z-5.065
Y12.599 Z-5.191 F500
Y12.799 Z-5.332
Y12.999 Z-5.488
Y13.199 Z-5.661
Y13.399 Z-5.854
Y13.599 Z-6.07
Y13.799 Z-6.316
Y13.999 Z-6.596
Y14.199 Z-6.926
Y14.399 Z-7.327
Y14.599 Z-7.858
Y14.799 Z-8.821
Y14.999 Z-9.999
Y17.799 F1000
G00 Z9.999
X9.999 Y1.599
G01 Z-9.999 F500
Y1.799 F1000
Y1.999 Z-9.06
Y2.199 Z-7.937
Y2.399 Z-7.392
Y2.599 Z-6.985
Y2.799 Z-6.653
Y2.999 Z-6.373
Y3.199 Z-6.129
Y3.399 Z-5.913
Y3.599 Z-5.72
Y3.799 Z-5.547
Y3.999 Z-5.393
Y4.199 Z-5.253
Y4.399 Z-5.126
Y4.599 Z-5.013
Y4.799 Z-4.911
Y4.999 Z-4.819
Y5.199 Z-4.738
Y5.399 Z-4.666
Y5.599 Z-4.602
Y5.799 Z-4.548
Y5.999 Z-4.5
Y6.199 Z-4.461
Y6.399 Z-4.428
Y6.599 Z-4.402
Y6.799 Z-4.382
Y6.999 Z-4.368
Y7.199 Z-4.358
Y7.399 Z-4.353
Y7.599 Z-4.35
Y7.799 Z-4.349
Y8.799
Y8.999 Z-4.35
Y9.199 Z-4.351
Y9.399 Z-4.355
Y9.599 Z-4.363
Y9.799 Z-4.376
Y9.999 Z-4.393
Y10.199 Z-4.417
Y10.399 Z-4.446
Y10.599 Z-4.484
Y10.799 Z-4.527
Y10.999 Z-4.579
Y11.199 Z-4.639
Y11.399 Z-4.708
Y11.599 Z-4.785
Y11.799 Z-4.872
Y11.999 Z-4.97
Y12.199 Z-5.079
Y12.399 Z-5.2 F500
Y12.599 Z-5.334
Y12.799 Z-5.482
Y12.999 Z-5.647
Y13.199 Z-5.832
Y13.399 Z-6.039
Y13.599 Z-6.27
Y13.799 Z-6.535
Y13.999 Z-6.844
Y14.199 Z-7.215
Y14.399 Z-7.691
Y14.599 Z-8.418
Y14.799 Z-9.999
Y17.799 F1000
G00 Z9.999
X10.999 Y1.599
G01 Z-9.999 F500
Y2.199 F1000
Y2.399 Z-8.365
Y2.599 Z-7.689
Y2.799 Z-7.239
Y2.999 Z-6.884
Y3.199 Z-6.586
Y3.399 Z-6.331
Y3.599 Z-6.109
Y3.799 Z-5.91
Y3.999 Z-5.733
Y4.199 Z-5.575
Y4.399 Z-5.431
Y4.599 Z-5.303
Y4.799 Z-5.186
Y4.999 Z-5.082
Y5.199 Z-4.987
Y5.399 Z-4.903
Y5.599 Z-4.827
Y5.799 Z-4.76
Y5.999 Z-4.701
Y6.199 Z-4.649
Y6.399 Z-4.603
Y6.599 Z-4.565
Y6.799 Z-4.532
Y6.999 Z-4.504
Y7.199 Z-4.482
Y7.399 Z-4.464
Y7.599 Z-4.45
Y7.799 Z-4.44
Y7.999 Z-4.433
Y8.199 Z-4.429
Y8.399 Z-4.428
Y8.599 Z-4.431
Y8.799 Z-4.436
Y8.999 Z-4.445
Y9.199 Z-4.458
Y9.399 Z-4.474
Y9.599 Z-4.495
Y9.799 Z-4.52
Y9.999 Z-4.551
Y10.199 Z-4.587
Y10.399 Z-4.63
Y10.599 Z-4.679
Y10.799 Z-4.735
Y10.999 Z-4.799
Y11.199 Z-4.871
Y11.399 Z-4.952
Y11.599 Z-5.042
Y11.799 Z-5.142
Y11.999 Z-5.254
Y12.199 Z-5.378 F500
Y12.399 Z-5.515
Y12.599 Z-5.667
Y12.799 Z-5.835
Y12.999 Z-6.026
Y13.199 Z-6.238
Y13.399 Z-6.478
Y13.599 Z-6.758
Y13.799 Z-7.087
Y13.999 Z-7.491
Y14.199 Z-8.044
Y14.399 Z-9.999
Y17.399 F1000
G00 Z9.999
X12 Y1.599
G01 Z-9.999 F500
Y2.599 F1000
Y2.799 Z-9.088
Y2.999 Z-8.035
Y3.199 Z-7.525
Y3.399 Z-7.149
Y3.599 Z-6.842
Y3.799 Z-6.58
Y3.999 Z-6.356
Y4.199 Z-6.156
Y4.399 Z-5.981
Y4.599 Z-5.823
Y4.799 Z-5.682
Y4.999 Z-5.554
Y5.199 Z-5.44
Y5.399 Z-5.337
Y5.599 Z-5.245
Y5.799 Z-5.162
Y5.999 Z-5.088
Y6.199 Z-5.022
Y6.399 Z-4.964
Y6.599 Z-4.913
Y6.799 Z-4.869
Y6.999 Z-4.831
Y7.199 Z-4.799
Y7.399 Z-4.772
Y7.599 Z-4.752
Y7.799 Z-4.736
Y7.999 Z-4.725
Y8.199 Z-4.719
Y8.399 Z-4.718
Y8.599 Z-4.722
Y8.799 Z-4.731
Y8.999 Z-4.745
Y9.199 Z-4.763
Y9.399 Z-4.787
Y9.599 Z-4.817
Y9.799 Z-4.853
Y9.999 Z-4.894
Y10.199 Z-4.942
Y10.399 Z-4.997
Y10.599 Z-5.06
Y10.799 Z-5.131
Y10.999 Z-5.21
Y11.199 Z-5.299
Y11.399 Z-5.397
Y11.599 Z-5.507
Y11.799 Z-5.629 F500
Y11.999 Z-5.764
Y12.199 Z-5.915
Y12.399 Z-6.083
Y12.599 Z-6.272
Y12.799 Z-6.486
Y12.999 Z-6.731
Y13.199 Z-7.018
Y13.399 Z-7.36
Y13.599 Z-7.805
Y13.799 Z-8.484
Y13.999 Z-9.999
Y17.199 F1000
G00 Z9.999
X13 Y1.599
G01 Z-9.999 F500
Y3.399 F1000
Y3.599 Z-8.704
Y3.799 Z-7.995
Y3.999 Z-7.562
Y4.199 Z-7.237
Y4.399 Z-6.966
Y4.599 Z-6.739
Y4.799 Z-6.54
Y4.999 Z-6.366
Y5.199 Z-6.213
Y5.399 Z-6.075
Y5.599 Z-5.955
Y5.799 Z-5.847
Y5.999 Z-5.749
Y6.199 Z-5.665
Y6.399 Z-5.589
Y6.599 Z-5.523
Y6.799 Z-5.464
Y6.999 Z-5.414
Y7.199 Z-5.373
Y7.399 Z-5.338
Y7.599 Z-5.31
Y7.799 Z-5.29
Y7.999 Z-5.275
Y8.199 Z-5.267
Y8.399 Z-5.266
Y8.599 Z-5.271
Y8.799 Z-5.282
Y8.999 Z-5.301
Y9.199 Z-5.325
Y9.399 Z-5.358
Y9.599 Z-5.397
Y9.799 Z-5.444
Y9.999 Z-5.498
Y10.199 Z-5.56
Y10.399 Z-5.632
Y10.599 Z-5.714
Y10.799 Z-5.806
Y10.999 Z-5.909
Y11.199 Z-6.025 F500
Y11.399 Z-6.156
Y11.599 Z-6.301
Y11.799 Z-6.467
Y11.999 Z-6.654
Y12.199 Z-6.87
Y12.399 Z-7.121
Y12.599 Z-7.422
Y12.799 Z-7.802
Y12.999 Z-8.351
Y13.199 Z-9.999
Y16.599 F1000
G00 Z9.999
X14 Y1.599
G01 Z-9.999 F500
Y4.599 F1000
Y4.799 Z-8.607
Y4.999 Z-8.086
Y5.199 Z-7.741
Y5.399 Z-7.476
Y5.599 Z-7.261
Y5.799 Z-7.077
Y5.999 Z-6.924
Y6.199 Z-6.79
Y6.399 Z-6.673
Y6.599 Z-6.575
Y6.799 Z-6.49
Y6.999 Z-6.416
Y7.199 Z-6.355
Y7.399 Z-6.306
Y7.599 Z-6.265
Y7.799 Z-6.235
Y7.999 Z-6.216
Y8.199 Z-6.205
Y8.399 Z-6.202
Y8.599 Z-6.209
Y8.799 Z-6.227
Y8.999 Z-6.253
Y9.199 Z-6.288
Y9.399 Z-6.333
Y9.599 Z-6.391
Y9.799 Z-6.459
Y9.999 Z-6.538
Y10.199 Z-6.632
Y10.399 Z-6.742
Y10.599 Z-6.865 F500
Y10.799 Z-7.013
Y10.999 Z-7.184
Y11.199 Z-7.382
Y11.399 Z-7.628
Y11.599 Z-7.93
Y11.799 Z-8.36
Y11.999 Z-9.999
Y15.999 F1000
G00 Z9.999
X15 Y1.599
G01 Z-9.999 F500
Y6.999 F1000
Y7.199 Z-8.985
Y7.399 Z-8.669
Y7.599 Z-8.506
Y7.799 Z-8.396
Y7.999 Z-8.324
Y8.199 Z-8.295
Y8.399 Z-8.285
Y8.599 Z-8.308
Y8.799 Z-8.365
Y8.999 Z-8.451
Y9.199 Z-8.597 F500
Y9.399 Z-8.831
Y9.599 Z-9.999
Y15.199 F1000
G00 Z9.999
X15.999 Y2.799
G01 Z-9.999 F500
Y14.199 F1000
G00 Z9.999
X17 Y4.399
G01 Z-9.999 F500
Y12.599 F1000
G00 Z9.999
X1.999 Y1.599
G01 Z-14.349 F500
Y15.199 F1000
G00 Z9.999
X2.999 Y11.799
G01 Z-9.999 F500
Z-14.349
Y15.999 F1000
G00 Z9.999
X3.999 Y12.999
G01 Z-9.999 F500
Z-14.349
Y16.599 F1000
X4.999 Y13.799 Z-9.999
Z-14.349 F500
Y17.199 F1000
X5.999 Y14.399 Z-9.999
Z-14.349 F500
Y17.399 F1000
X6.999 Y14.799 Z-9.999
Z-14.349 F500
Y17.799 F1000
X7.999 Y14.999 Z-9.999
Z-14.349 F500
Y17.799 F1000
X8.999 Y14.999 Z-9.999
Z-14.349 F500
Y17.799 F1000
G00 Z9.999
X9.999 Y14.799
G01 Z-9.999 F500
Z-14.349
Y17.799 F1000
G00 Z9.999
X10.999 Y14.399
G01 Z-9.999 F500
Z-14.349
Y17.399 F1000
G00 Z9.999
X12 Y13.999
G01 Z-9.999 F500
Z-14.349
Y17.199 F1000
G00 Z9.999
X13 Y13.199
G01 Z-9.999 F500
Z-14.349
Y16.599 F1000
G00 Z9.999
X14 Y11.999
G01 Z-9.999 F500
Z-14.349
Y15.999 F1000
G00 Z9.999
X15 Y9.599
G01 Z-9.999 F500
Z-14.349
Y15.199 F1000
G00 Z9.999
X2.999 Y1.599
G01 Z-14.349 F500
Y4.999 F1000
Z-9.999
G00 Z9.999
X3.999 Y1.599
G01 Z-14.349 F500
Y3.599 F1000
Z-9.999
X4.999 Y1.599 Z-14.349 F500
Y2.799 F1000
Z-9.999
X5.999 Y1.599 Z-14.349 F500
Y2.199 F1000
Z-9.999
X6.999 Y1.599 Z-14.349 F500
Y1.999 F1000
Z-9.999
X7.999 Y1.599 Z-14.349 F500
Y1.799 F1000
Z-9.999
X8.999 Y1.599 Z-14.349 F500
Y1.799 F1000
Z-9.999
X9.999 Y1.599 Z-14.349 F500
Y1.799 F1000
Z-9.999
X10.999 Y1.599 Z-14.349 F500
Y2.199 F1000
Z-9.999
X12 Y1.599 Z-14.349 F500
Y2.599 F1000
Z-9.999
X13 Y1.599 Z-14.349 F500
Y3.399 F1000
Z-9.999
X14 Y1.599 Z-14.349 F500
Y4.599 F1000
Z-9.999
G00 Z9.999
X15 Y1.599
G01 Z-14.349 F500
Y6.999 F1000
Z-9.999
G00 Z9.999
X15.999 Y2.799
G01 Z-14.349 F500
Y14.199 F1000
G00 Z9.999
X17 Y4.399
G01 Z-14.349 F500
Y12.599 F1000
G00 Z9.999
T0 M06 M02
